src/assets/img/providers/fugaso-g.svg

<svg width="78" height="28" viewBox="0 0 78 28" fill="none" xmlns="http://www.w3.org/2000/svg">
<g clip-path="url(#clip0_4426_8040)">
<path fill-rule="evenodd" clip-rule="evenodd" d="M11.6666 19.6859L9.23138 15.5442L6.98718 11.6677H6.97687L0.35997 0.487305L22.9714 0.510534L20.6265 4.53938L7.41944 4.51793L9.26627 7.63847L18.7692 7.63853L16.4241 11.6677H11.7087L14.0329 15.6801L14.032 15.6816L16.3752 19.7283L21.1453 11.6669H18.7937L21.1387 7.6377H28.0952L16.3566 27.6625L11.6668 19.6862L11.6666 19.6859ZM36.2284 9.10382H32.61V11.1053H35.5749V12.5851H32.61V15.6296H30.9762V7.62402H36.2284V9.10382ZM40.7783 15.7752C42.7146 15.7752 44.1667 14.4652 44.1667 12.3182V7.62402H42.533V12.4395C42.533 13.6404 41.7827 14.259 40.7783 14.259C39.786 14.259 39.0236 13.6404 39.0236 12.4395V7.62402H37.3898V12.3182C37.3898 14.4652 38.8299 15.7752 40.7783 15.7752ZM53.122 9.21304L51.96 10.1714C51.4274 9.4315 50.714 8.9947 49.7334 8.9947C48.1844 8.9947 47.1679 10.0986 47.1679 11.6269C47.1679 13.1795 48.2209 14.3076 49.8301 14.3076C50.7622 14.3076 51.5002 13.9195 51.9359 13.313V12.6579H49.7334V11.2387H53.57V13.6041C52.8678 14.8656 51.4638 15.7753 49.7576 15.7753C47.3614 15.7753 45.4855 13.9801 45.4855 11.6269C45.4855 9.27375 47.3491 7.47855 49.7576 7.47855C51.1855 7.47855 52.3598 8.12143 53.122 9.21304ZM56.3168 14.5866H59.5844L60.0319 15.6297H61.7869L58.2292 7.47855H57.6844L54.1144 15.6297H55.8688L56.3168 14.5866ZM56.8858 13.2402L57.9504 10.5353L59.0155 13.2402H56.8858ZM67.9704 8.9947L66.8571 9.85598C66.4702 9.27375 65.9858 8.93416 65.3323 8.93416C64.8003 8.93416 64.3399 9.1767 64.3399 9.71043C64.3399 10.1714 64.6911 10.3654 65.2723 10.6323L66.1795 11.0326C67.4379 11.5906 68.1524 12.2333 68.1524 13.3736C68.1524 14.8656 66.9423 15.7753 65.3569 15.7753C63.9771 15.7753 62.8638 15.0718 62.2707 14.0043L63.3963 13.1552C63.832 13.7617 64.401 14.3197 65.3569 14.3197C66.0586 14.3197 66.4943 13.9923 66.4943 13.4343C66.4943 12.9127 66.1067 12.7308 65.4779 12.4396L64.6188 12.0515C63.4809 11.5299 62.6823 10.8749 62.6823 9.74678C62.6823 8.36397 63.832 7.47855 65.3323 7.47855C66.6035 7.47855 67.4989 8.12144 67.9704 8.9947ZM73.3801 15.7753C75.7276 15.7753 77.64 13.9801 77.64 11.6269C77.64 9.27375 75.7276 7.47855 73.3801 7.47855C71.032 7.47855 69.1443 9.27375 69.1443 11.6269C69.1443 13.9801 71.032 15.7753 73.3801 15.7753ZM73.3924 14.259C71.9034 14.259 70.8265 13.1795 70.8265 11.6269C70.8265 10.0864 71.9034 8.9947 73.3924 8.9947C74.8563 8.9947 75.9578 10.0864 75.9578 11.6269C75.9578 13.1795 74.8563 14.259 73.3924 14.259Z" fill="#00AB55"/>
</g>
<defs>
<clipPath id="clip0_4426_8040">
<rect width="77.2801" height="28" fill="white" transform="translate(0.35997 0.000976562)"/>
</clipPath>
</defs>
</svg>

<svg width="78" height="28" fill="none" xmlns="http://www.w3.org/2000/svg"><g clip-path="url(#a)"><path fill-rule="evenodd" clip-rule="evenodd" d="M11.667 19.686 9.23 15.544l-2.244-3.876h-.01L.36.488 22.971.51l-2.345 4.028L7.42 4.518l1.847 3.12h9.503l-2.345 4.03H11.71l2.324 4.012-.001.002 2.343 4.046 4.77-8.061h-2.351l2.345-4.03h6.956L16.357 27.664l-4.69-7.977ZM36.228 9.104H32.61v2.001h2.965v1.48H32.61v3.045h-1.634V7.624h5.252v1.48Zm4.55 6.671c1.937 0 3.389-1.31 3.389-3.457V7.624h-1.634v4.816c0 1.2-.75 1.819-1.755 1.819-.992 0-1.754-.619-1.754-1.82V7.625H37.39v4.694c0 2.147 1.44 3.457 3.388 3.457Zm12.344-6.562-1.162.958c-.533-.74-1.246-1.176-2.227-1.176-1.549 0-2.565 1.104-2.565 2.632 0 1.553 1.053 2.68 2.662 2.68.932 0 1.67-.388 2.106-.994v-.655h-2.203v-1.42h3.837v2.366c-.702 1.262-2.106 2.171-3.812 2.171-2.397 0-4.273-1.795-4.273-4.148 0-2.353 1.864-4.148 4.273-4.148 1.427 0 2.602.642 3.364 1.734Zm3.195 5.374h3.267l.448 1.043h1.755l-3.558-8.151h-.545l-3.57 8.15h1.755l.448-1.042Zm.569-1.347 1.064-2.705 1.066 2.705h-2.13ZM67.97 8.995l-1.113.861c-.387-.582-.871-.922-1.525-.922-.532 0-.992.243-.992.776 0 .461.351.655.932.922l.907.4c1.259.559 1.973 1.201 1.973 2.342 0 1.492-1.21 2.401-2.795 2.401-1.38 0-2.493-.703-3.086-1.77l1.125-.85c.436.607 1.005 1.165 1.96 1.165.703 0 1.138-.328 1.138-.886 0-.521-.387-.703-1.016-.994l-.86-.388c-1.137-.522-1.936-1.177-1.936-2.305 0-1.383 1.15-2.268 2.65-2.268 1.272 0 2.167.642 2.638 1.516Zm5.41 6.78c2.348 0 4.26-1.795 4.26-4.148 0-2.353-1.912-4.148-4.26-4.148s-4.236 1.795-4.236 4.148c0 2.353 1.888 4.148 4.236 4.148Zm.012-1.516c-1.489 0-2.566-1.08-2.566-2.632 0-1.54 1.077-2.632 2.566-2.632 1.464 0 2.566 1.091 2.566 2.632 0 1.553-1.102 2.632-2.566 2.632Z" fill="#00AB55"/></g><defs><clipPath id="a"><path fill="#fff" transform="translate(.36 .001)" d="M0 0h77.28v28H0z"/></clipPath></defs></svg>
